icons/svgs/route-outline.svg

<svg width="24" height="24" viewBox="0 0 24 24" fill="none" xmlns="http://www.w3.org/2000/svg">
<path d="M19.1094 8.09375C19.8125 7 20.125 6.17969 20.125 5.75C20.125 4.73438 19.2656 3.875 18.25 3.875C17.1953 3.875 16.375 4.73438 16.375 5.75C16.375 6.17969 16.6484 7 17.3516 8.09375C17.625 8.5625 17.9375 8.99219 18.25 9.38281C18.5234 8.99219 18.8359 8.5625 19.1094 8.09375ZM18.6797 11.8047C18.5234 12 18.3281 12.0781 18.0938 12H14.8125C13.9141 12 13.25 12.7031 13.25 13.5625C13.25 14.4609 13.9141 15.125 14.8125 15.125H18.5625C20.4375 15.125 22 16.6875 22 18.5625C22 20.4766 20.4375 22 18.5625 22H7.42969C7.78125 21.6484 8.17188 21.1406 8.60156 20.5938C8.71875 20.4375 8.83594 20.2812 8.91406 20.125H18.5625C19.4219 20.125 20.125 19.4609 20.125 18.5625C20.125 17.7031 19.4219 17 18.5625 17H14.8125C12.8984 17 11.375 15.4766 11.375 13.5625C11.375 11.6875 12.8984 10.125 14.8125 10.125H16.4531C15.4766 8.79688 14.5 7.07812 14.5 5.75C14.5 3.67969 16.1797 2 18.25 2C20.3203 2 22 3.67969 22 5.75C22 7.74219 19.6562 10.6719 18.6797 11.8047ZM6.60938 17.9766C7.3125 16.9219 7.625 16.1406 7.625 15.75C7.625 14.7344 6.76562 13.875 5.75 13.875C4.69531 13.875 3.875 14.7344 3.875 15.75C3.875 16.1406 4.14844 16.9219 4.85156 17.9766C5.125 18.4062 5.4375 18.8359 5.75 19.1875C6.02344 18.8359 6.33594 18.4062 6.60938 17.9766ZM7.35156 20.125C7.07812 20.4766 6.80469 20.8281 6.57031 21.1016C6.45312 21.2578 6.29688 21.375 6.21875 21.5312C6.17969 21.5312 6.17969 21.5312 6.17969 21.5703C6.17969 21.5703 6.17969 21.5703 6.14062 21.5703C5.94531 21.8047 5.55469 21.8047 5.32031 21.5703C4.30469 20.4766 2 17.7422 2 15.75C2 13.6797 3.67969 12 5.75 12C7.82031 12 9.5 13.6797 9.5 15.75C9.5 17.1172 8.36719 18.8359 7.35156 20.125Z" fill="black"/>
</svg>

<svg xmlns="http://www.w3.org/2000/svg" width="24" height="24" fill="currentColor" class="icon-route-outline" viewBox="0 0 24 24">
  <mask id="a" width="20" height="20" x="2" y="2" maskUnits="userSpaceOnUse" style="mask-type:alpha">
    <path d="M19.11 8.094C19.812 7 20.124 6.18 20.124 5.75c0-1.016-.86-1.875-1.875-1.875-1.055 0-1.875.86-1.875 1.875 0 .43.273 1.25.977 2.344.273.469.585.898.898 1.289.273-.39.586-.82.86-1.29m-.43 3.71c-.157.196-.352.274-.586.196h-3.282c-.898 0-1.562.703-1.562 1.563 0 .898.664 1.562 1.563 1.562h3.75c1.875 0 3.437 1.563 3.437 3.438A3.443 3.443 0 0 1 18.563 22H7.43c.351-.352.742-.86 1.172-1.406.117-.157.234-.313.312-.469h9.649c.859 0 1.562-.664 1.562-1.562 0-.86-.703-1.563-1.562-1.563h-3.75a3.42 3.42 0 0 1-3.438-3.437 3.443 3.443 0 0 1 3.438-3.438h1.64C15.477 8.797 14.5 7.078 14.5 5.75a3.751 3.751 0 0 1 7.5 0c0 1.992-2.344 4.922-3.32 6.055M6.61 17.978c.702-1.055 1.015-1.836 1.015-2.227 0-1.016-.86-1.875-1.875-1.875-1.055 0-1.875.86-1.875 1.875 0 .39.273 1.172.977 2.227.273.43.585.859.898 1.21.273-.351.586-.78.86-1.21m.742 2.148a28 28 0 0 1-.782.977c-.117.156-.273.273-.351.43-.04 0-.04 0-.04.038h-.038c-.196.235-.586.235-.82 0C4.304 20.477 2 17.742 2 15.75a3.751 3.751 0 0 1 7.5 0c0 1.367-1.133 3.086-2.148 4.375"/>
  </mask>
  <g mask="url(#a)">
    <path d="M0 0h24v24H0z"/>
  </g>
</svg>
